packages/foundations/icons/Activities/Spider.svg

<svg width="24" height="24" viewBox="0 0 24 24" fill="none" xmlns="http://www.w3.org/2000/svg">
<g clip-path="url(#clip0_1_7256)">
<path d="M19 5.08579L22.7071 8.79289L22.7903 8.8871C23.0699 9.2467 23.0699 9.7533 22.7903 10.1129L22.7071 10.2071L22.6129 10.2903C22.2533 10.5699 21.7467 10.5699 21.3871 10.2903L21.2929 10.2071L19 7.915L18.1161 8.7995C18.6784 9.33883 19.1347 9.9552 19.4573 10.629L20 10.0858L23.7071 13.7929L23.7903 13.8871C24.0699 14.2467 24.0699 14.7533 23.7903 15.1129L23.7071 15.2071L23.6129 15.2903C23.2533 15.5699 22.7467 15.5699 22.3871 15.2903L22.2929 15.2071L20 12.915L19.998 12.916L20 13C20 13.8912 19.7837 14.7347 19.3932 15.5007L20.4142 15.5L23.7071 18.7929L23.7903 18.8871C24.0699 19.2467 24.0699 19.7533 23.7903 20.1129L23.7071 20.2071L23.6129 20.2903C23.2533 20.5699 22.7467 20.5699 22.3871 20.2903L22.2929 20.2071L19.586 17.5H18L17.8834 17.4933C17.8576 17.4903 17.8322 17.4863 17.8071 17.4814C17.4779 17.7611 17.1175 18.0182 16.7312 18.2477L17.5926 18.6781L20.7073 21.7929L20.7905 21.8871C21.0701 22.2467 21.0701 22.7533 20.7905 23.1129L20.7073 23.2071L20.6131 23.2903C20.2535 23.5699 19.7469 23.5699 19.3873 23.2903L19.2931 23.2071L16.4072 20.321L14.553 19.3944L14.4517 19.3363C14.401 19.3031 14.3541 19.2659 14.3114 19.2253C13.5789 19.4041 12.802 19.5 12 19.5C11.198 19.5 10.4211 19.4041 9.68697 19.225C9.64608 19.2659 9.59922 19.3031 9.54851 19.3363L9.44721 19.3944L7.593 20.321L4.70711 23.2071C4.34662 23.5676 3.77939 23.5953 3.3871 23.2903L3.29289 23.2071C2.93241 22.8466 2.90468 22.2794 3.2097 21.8871L3.29289 21.7929L6.40764 18.6781L7.26882 18.2477C6.88246 18.0182 6.52213 17.7611 6.19244 17.4796L6.11662 17.4933L6 17.5H4.414L1.70711 20.2071C1.34662 20.5676 0.779392 20.5953 0.387101 20.2903L0.292893 20.2071C-0.0675907 19.8466 -0.0953203 19.2794 0.209705 18.8871L0.292893 18.7929L3.58579 15.5L4.60683 15.5007C4.21626 14.7347 4 13.8912 4 13L4.00062 12.9171L4 12.915L1.70711 15.2071C1.34662 15.5676 0.779392 15.5953 0.387101 15.2903L0.292893 15.2071C-0.0675907 14.8466 -0.0953203 14.2794 0.209705 13.8871L0.292893 13.7929L4 10.0858L4.54275 10.629C4.86535 9.9552 5.32161 9.33883 5.88391 8.7995L5 7.915L2.70711 10.2071C2.34662 10.5676 1.77939 10.5953 1.3871 10.2903L1.29289 10.2071C0.932409 9.84662 0.90468 9.27939 1.2097 8.8871L1.29289 8.79289L5 5.08579L7.52304 7.60743C8.80598 6.90587 10.3499 6.5 12 6.5C13.6501 6.5 15.194 6.90587 16.477 7.60743L19 5.08579ZM12 8.5C8.64061 8.5 6 10.5748 6 13C6 15.4252 8.64061 17.5 12 17.5C15.3594 17.5 18 15.4252 18 13C18 10.5748 15.3594 8.5 12 8.5ZM10 11.5C10.5523 11.5 11 11.9477 11 12.5V13.5C11 14.0523 10.5523 14.5 10 14.5C9.44771 14.5 9 14.0523 9 13.5V12.5C9 11.9477 9.44771 11.5 10 11.5ZM14 11.5C14.5523 11.5 15 11.9477 15 12.5V13.5C15 14.0523 14.5523 14.5 14 14.5C13.4477 14.5 13 14.0523 13 13.5V12.5C13 11.9477 13.4477 11.5 14 11.5ZM12 0C12.2455 0 12.4496 0.176875 12.4919 0.410124L12.5 0.5V5.5C12.5 5.77614 12.2761 6 12 6C11.7545 6 11.5504 5.82312 11.5081 5.58988L11.5 5.5V0.5C11.5 0.223858 11.7239 0 12 0Z" fill="#3D474D"/>
</g>
<defs>
<clipPath id="clip0_1_7256">
<rect width="24" height="24" fill="white"/>
</clipPath>
</defs>
</svg>

<svg width="24" height="24" fill="none" xmlns="http://www.w3.org/2000/svg"><g clip-path="url(#clip0_1_7256)"><path d="M19 5.086l3.707 3.707.083.094a1 1 0 010 1.226l-.083.094-.094.083a1 1 0 01-1.226 0l-.094-.083L19 7.915l-.884.885a6.338 6.338 0 011.341 1.829l.543-.543 3.707 3.707.083.094a1 1 0 010 1.226l-.083.094-.094.083a1 1 0 01-1.226 0l-.094-.083L20 12.915l-.002.001L20 13c0 .891-.216 1.735-.607 2.5h1.021l3.293 3.293.083.094a1 1 0 010 1.226l-.083.094-.094.083a1 1 0 01-1.226 0l-.094-.083-2.707-2.707H18l-.117-.007a1.002 1.002 0 01-.076-.012c-.33.28-.69.537-1.076.767l.862.43 3.114 3.115.084.094a1 1 0 010 1.226l-.084.094-.094.083a1 1 0 01-1.226 0l-.094-.083-2.886-2.886-1.854-.927-.101-.058a.993.993 0 01-.14-.11A9.755 9.755 0 0112 19.5a9.764 9.764 0 01-2.313-.275.868.868 0 01-.138.111l-.102.058-1.854.927-2.886 2.886a1 1 0 01-1.32.083l-.094-.083a1 1 0 01-.083-1.32l.083-.094 3.115-3.115.86-.43a7.76 7.76 0 01-1.076-.768l-.075.013L6 17.5H4.414l-2.707 2.707a1 1 0 01-1.32.083l-.094-.083a1 1 0 01-.083-1.32l.083-.094L3.586 15.5h1.02A5.472 5.472 0 014 13v-.085l-2.293 2.292a1 1 0 01-1.32.083l-.094-.083a1 1 0 01-.083-1.32l.083-.094L4 10.086l.543.543a6.338 6.338 0 011.34-1.83L5 7.915l-2.293 2.292a1 1 0 01-1.32.083l-.094-.083a1 1 0 01-.083-1.32l.083-.094L5 5.086l2.523 2.521C8.806 6.906 10.35 6.5 12 6.5c1.65 0 3.194.406 4.477 1.107L19 5.086zM12 8.5c-3.36 0-6 2.075-6 4.5s2.64 4.5 6 4.5 6-2.075 6-4.5-2.64-4.5-6-4.5zm-2 3a1 1 0 011 1v1a1 1 0 11-2 0v-1a1 1 0 011-1zm4 0a1 1 0 011 1v1a1 1 0 11-2 0v-1a1 1 0 011-1zM12 0a.5.5 0 01.492.41L12.5.5v5a.5.5 0 01-.992.09L11.5 5.5v-5A.5.5 0 0112 0z" fill="#3D474D"/></g><defs><clipPath id="clip0_1_7256"><path fill="#fff" d="M0 0h24v24H0z"/></clipPath></defs></svg>
